!!!SOCIAL_FUNCTION:	songs connected with the treatment of the sick
!!!PDT:	1932
!!!OTL: No_73_The_Heavens_Help_You.krn
!!!REG: Wisconsin
!!!LANG: Non-Tone
!!!LING_GROUP: Algonquin
**kern
*staff1
=1-
*clefF4
*k[b-e-]
*M2/4
4r
8c\L
8c\J
=2
8.c\L
16d\Jk
4c\
=3||
*M3/4
4c\
8.B-\L
16G\Jk
16G\
16r
16B-\LL
16B-\JJ
=4||
*M2/4
8.B-\L
16G\Jk
4G\
=5||
*M3/4
4G\
8.G\L
16G\Jk
8.G\L
16G\Jk
=6
2G\
8r
16c\LL
16c\JJ
=7||
*M2/4
8.c\L
16c\Jk
4c\
=8||
*M3/4
4c\
8.B-\L
16G\Jk
16G\
16r
16B-\LL
16B-\JJ
=9||
*M2/4
8.B-\L
16G\Jk
4G\
=10||
*M3/4
4G\
8.G\L
16G\Jk
8.G\L
16G\Jk
=11
2G\
4r
=12
12B-\L
12G\
12G\J
4B-\
12B-\L
12G\
12F\J
=13||
*M2/4
8.E-\L
16E-\Jk
4C/
=14
12E-/L
12C/
12C/J
8.D/L
16C/Jk
=15
8.D/L
16C/Jk
8.C/L
16C/Jk
=16||
*M3/4
2C/
16C/
16r
16E-/LL
16C/JJ
=17||
*M2/4
8.C/L
16D/Jk
4C/
=18||
*M3/4
4C/
8.BB-/L
16GG/Jk
16GG/
16r
16BB-/LL
16BB-/JJ
=19||
*M2/4
8.BB-/L
16GG/Jk
4GG/
=20
4GG/
8.GG/L
16GG/Jk
=21
2GG/
==
*-
